!!!COM: Anon.
!!!OTL: Buffalo Society Song (a)
!!!MPN: Maisuiaksis [Holding Eagle]
!!!ODT: <1918//
!!!MLC: Fort Berthold Reservation, North Dakota, United States of America
!! Song was recorded during either the summer of 1912, 1915, or 1918.
!!!AGN: monody
!!!AST: Mandan and Hidatsa Men's Buffalo Society
!!!AMT: irregular
!!!RWG: Transcribed pitches, durations, and meters are only approximate.
!! Drum Tempo: MM100
!! Drum-rhythm: (4 4 4 4)
**kern
*ICvox
*Imale
*clefF4
*k[b-e-]
*M3/4
*MM100
=1-
8B-
8B-
2B-
=2
4f
4f
(12f
12e
12f)
*M2/4
=3
8B-
8B-
8B-
8B-;
*M3/4
=4
4c
8.c
16e-
(12d
12c
12d)
*M2/4
=5
8B-
8B-
8B-
8B-;
*M3/4
=6
4d
8B-
8B-
(12B-
12B-
12F)
*M2/4
=7
4B-
8.B-
16d
=8
8c
8B-
8F
8F
=9
4F
4F
=10
4c
8.c
16e-
(12d
12c
12d)
*M2/4
=11
8B-
8B-
8B-
8B-;
*M3/4
=12
4d
8B-
8B-
(12B-
12B-
12F)
*M2/4
=13
4B-
8.B-
16d
=14
8c
8B-
8F
8F
=15
4F
4F
==
*-
!!!CNT: Hidatsa
!!!TXO: Hidatsa
!!!OCY: United States
!!!OCL: Frances Densmore
!!!YOR: Frances Densmore, "Mandan and Hidatsa Music",
!!!YOR: Bulletin 80, page 138, No. 69
!!!PPR: Smithsonian Institution, Bureau of American Ethnology
!!!PPR: Government Printing Office
!!!PDT: 1923
!!!PPP: Washington, DC, United States of America
!!!YEC: Electronic Copyright 2000 David Huron
!!!YER: August 2000
!!!YEN: United States of America
!!!ENC: David Huron
!!!RDT: August 17, 2000
!!!EEV: Release 1.0
!!!AIN: tom, vox
